X: 758
T: Xia liulin
L: 1/16
M: 2/4
K: G
B2 A2 B2 A G [I:setbarnb 1]| 
A2 E DB,4 | 
A2 A2 A2 B2 | 
d2A6 | 
d2> e2 e g e d | 
e d B A G E G2 | 
A B A G E D B,2 | 
D2> E2D4 |]

@@@ Tune index: 9632
